X:727
T:Jeana's Tune 
C:Joe Buchanan's Scottish Tome - Page 505.0
I:505 0
C:Tom Anderson
Z:Jo Wegstein
R:Reel
L:1/8
M:4/4
K:Fmaj
C2 | A4 B2 G2 | c3 d/e/ f2> A2 | B2 d2 A2 f2 | c2 BA G2> C |
A4 B2 G2 | c2 E2 F2> A,2 | B,D BG EC AG | F6 :|
A2 | d2> f2 e2 A2 | B2 d2 c2> E2 | F2 A2 d2 c2 | =Bc dG c2> c2 |
d2> f e2 A2 | B2 d2 c2> f2 | fe dc B2 d2 | cf fe f2> A |
d2> f e2 A2 | B2 d2 c2> E2 | F2 f2 c2> A2 | GF ED C2> C |
A4 B2 G2 | c2 E2 F2> A,2 | B,D BG E<C !fermata!AG | F6 |]

